packages/icons/src/SVG/forward-5.svg

<svg width="12" height="12" viewBox="0 0 12 12" >
<path d="M4.02114 2C1.77224 2 -0.0394977 3.83469 0.000654749 6.07142C0.039806 8.25237 1.82832 10 4.02114 10H8V12L12 9.5L8 7V9H4.02114C2.37653 9 1.03514 7.68928 1.00578 6.05356C0.975662 4.37602 2.33447 3 4.02114 3V2Z" />
<path d="M8.38525 2.12598C8.70654 2.12598 8.98909 2.18408 9.23291 2.30029C9.479 2.41423 9.67041 2.58284 9.80713 2.80615C9.94385 3.02718 10.0122 3.29834 10.0122 3.61963C10.0122 3.97054 9.93815 4.2736 9.79004 4.52881C9.64193 4.78174 9.42432 4.97656 9.13721 5.11328C8.8501 5.25 8.50033 5.31836 8.08789 5.31836C7.82585 5.31836 7.58089 5.29557 7.35303 5.25C7.12744 5.20443 6.93262 5.13607 6.76855 5.04492V4.32031C6.93945 4.41602 7.14453 4.49463 7.38379 4.55615C7.62305 4.6154 7.85205 4.64502 8.0708 4.64502C8.30322 4.64502 8.5026 4.61084 8.66895 4.54248C8.83529 4.47412 8.96289 4.3693 9.05176 4.22803C9.1429 4.08675 9.18848 3.90788 9.18848 3.69141C9.18848 3.4043 9.09619 3.18327 8.91162 3.02832C8.72933 2.87109 8.44336 2.79248 8.05371 2.79248C7.91699 2.79248 7.77116 2.80501 7.61621 2.83008C7.46354 2.85286 7.33594 2.87793 7.2334 2.90527L6.88135 2.69678L7.06934 0.25293H9.66699V0.960449H7.77686L7.66748 2.20459C7.74951 2.18636 7.84749 2.16927 7.96143 2.15332C8.07536 2.13509 8.21663 2.12598 8.38525 2.12598Z" />
</svg>

<!-- Generated by IcoMoon.io -->
<svg version="1.1" xmlns="http://www.w3.org/2000/svg" width="12" height="12" viewBox="0 0 12 12">
<title>forward-5</title>
<path fill="#4c505b" d="M4.021 2c-2.249 0-4.061 1.835-4.020 4.071 0.039 2.181 1.828 3.929 4.020 3.929h3.979v2l4-2.5-4-2.5v2h-3.979c-1.645 0-2.986-1.311-3.015-2.946-0.030-1.678 1.329-3.054 3.015-3.054v-1z"></path>
<path fill="#4c505b" d="M8.385 2.126c0.321 0 0.604 0.058 0.848 0.174 0.246 0.114 0.437 0.283 0.574 0.506 0.137 0.221 0.205 0.492 0.205 0.813 0 0.351-0.074 0.654-0.222 0.909-0.148 0.253-0.366 0.448-0.653 0.584s-0.637 0.205-1.049 0.205c-0.262 0-0.507-0.023-0.735-0.068-0.226-0.046-0.42-0.114-0.584-0.205v-0.725c0.171 0.096 0.376 0.174 0.615 0.236 0.239 0.059 0.468 0.089 0.687 0.089 0.232 0 0.432-0.034 0.598-0.103s0.294-0.173 0.383-0.314c0.091-0.141 0.137-0.32 0.137-0.537 0-0.287-0.092-0.508-0.277-0.663-0.182-0.157-0.468-0.236-0.858-0.236-0.137 0-0.283 0.013-0.437 0.038-0.153 0.023-0.28 0.048-0.383 0.075l-0.352-0.208 0.188-2.444h2.598v0.708h-1.89l-0.109 1.244c0.082-0.018 0.18-0.035 0.294-0.051 0.114-0.018 0.255-0.027 0.424-0.027z"></path>
</svg>
